static/fa/svgs/solid/building-ngo.svg

<svg xmlns="http://www.w3.org/2000/svg" viewBox="0 0 384 512"><!--! Font Awesome Free 6.1.1 by @fontawesome - https://fontawesome.com License - https://fontawesome.com/license/free (Icons: CC BY 4.0, Fonts: SIL OFL 1.1, Code: MIT License) Copyright 2022 Fonticons, Inc.--><path d="M320 112v32c0 8.8-7.2 16-16 16s-16-7.2-16-16v-32c0-8.8 7.2-16 16-16s16 7.2 16 16zM336 0c26.5 0 48 21.49 48 48v416c0 26.5-21.5 48-48 48h-96v-80c0-26.5-21.5-48-48-48s-48 21.5-48 48v80H48c-26.51 0-48-21.5-48-48V48C0 21.49 21.49 0 48 0h288zM64 272c0 8.8 7.16 16 16 16h32c8.8 0 16-7.2 16-16v-32c0-8.8-7.2-16-16-16H80c-8.84 0-16 7.2-16 16v32zm112-48c-8.8 0-16 7.2-16 16v32c0 8.8 7.2 16 16 16h32c8.8 0 16-7.2 16-16v-32c0-8.8-7.2-16-16-16h-32zm80 48c0 8.8 7.2 16 16 16h32c8.8 0 16-7.2 16-16v-32c0-8.8-7.2-16-16-16h-32c-8.8 0-16 7.2-16 16v32zM168 64c-8.8 0-16 7.16-16 16v88c0 13.3 10.7 24 24 24h32c13.3 0 24-10.7 24-24v-24c0-8.8-7.2-16-16-16s-16 7.2-16 16v16h-16V96h32c8.8 0 16-7.16 16-16s-7.2-16-16-16h-48zm88 80c0 26.5 21.5 48 48 48s48-21.5 48-48v-32c0-26.51-21.5-48-48-48s-48 21.49-48 48v32zM61.31 71.12a15.995 15.995 0 0 0-17.95-6.43A16 16 0 0 0 32 80v96c0 8.8 7.16 16 16 16s16-7.2 16-16v-43.2l34.69 52.1c3.91 5.8 11.21 8.5 17.91 6.4 6.8-2 11.4-8.2 11.4-15.3V80c0-8.84-7.2-16-16-16s-16 7.16-16 16v43.2L61.31 71.12z"/></svg>

<svg xmlns="http://www.w3.org/2000/svg" viewBox="0 0 384 512"><!--! Font Awesome Free 6.1.1 by @fontawesome - https://fontawesome.com License - https://fontawesome.com/license/free (Icons: CC BY 4.0, Fonts: SIL OFL 1.1, Code: MIT License) Copyright 2022 Fonticons, Inc. --><path d="M320 112V144C320 152.8 312.8 160 304 160C295.2 160 288 152.8 288 144V112C288 103.2 295.2 96 304 96C312.8 96 320 103.2 320 112zM336 0C362.5 0 384 21.49 384 48V464C384 490.5 362.5 512 336 512H240V432C240 405.5 218.5 384 192 384C165.5 384 144 405.5 144 432V512H48C21.49 512 0 490.5 0 464V48C0 21.49 21.49 0 48 0H336zM64 272C64 280.8 71.16 288 80 288H112C120.8 288 128 280.8 128 272V240C128 231.2 120.8 224 112 224H80C71.16 224 64 231.2 64 240V272zM176 224C167.2 224 160 231.2 160 240V272C160 280.8 167.2 288 176 288H208C216.8 288 224 280.8 224 272V240C224 231.2 216.8 224 208 224H176zM256 272C256 280.8 263.2 288 272 288H304C312.8 288 320 280.8 320 272V240C320 231.2 312.8 224 304 224H272C263.2 224 256 231.2 256 240V272zM168 64C159.2 64 152 71.16 152 80V168C152 181.3 162.7 192 176 192H208C221.3 192 232 181.3 232 168V144C232 135.2 224.8 128 216 128C207.2 128 200 135.2 200 144V160H184V96H216C224.8 96 232 88.84 232 80C232 71.16 224.8 64 216 64H168zM256 144C256 170.5 277.5 192 304 192C330.5 192 352 170.5 352 144V112C352 85.49 330.5 64 304 64C277.5 64 256 85.49 256 112V144zM61.31 71.12C57.4 65.26 50.11 62.64 43.36 64.69C36.62 66.73 32 72.95 32 80V176C32 184.8 39.16 192 48 192C56.84 192 64 184.8 64 176V132.8L98.69 184.9C102.6 190.7 109.9 193.4 116.6 191.3C123.4 189.3 128 183.1 128 176V80C128 71.16 120.8 64 112 64C103.2 64 96 71.16 96 80V123.2L61.31 71.12z"/></svg>
